X: 1357
T: the First of March   #2
R: reel
%S: s:2 b:13(5+4+4)
B: O'Neill's 1850 #1357
O: McFadden
Z: Trish O'Neil
M: C|
L: 1/8
K: G
"^A"[|] {a}ge !segno!|: d2BG AGEF | G2dG Bdge | d2BG AGEA |1 Bdgd efge :|2 Bdgde2 "^B"|: (ef) | g2T(gf) gbag |
| fdad fdfa |1 g2T(gf) gbaf | gfed Be :|2 (3(gab) ag (3(fga) ed | T(BA) (3(Bcd) efg!segno!e |]
